static/assets/images/icons/btr.svg

<svg width="256" height="256" viewBox="0 0 256 256" fill="none" xmlns="http://www.w3.org/2000/svg">
<path d="M14.9468 166.918L27.9026 89.1595H61.7399C67.6842 89.1595 72.549 89.9568 76.3341 91.5515C80.1446 93.1462 82.8374 95.3989 84.4124 98.3098C86.0128 101.221 86.4827 104.651 85.8223 108.599C85.3142 111.434 84.2219 114.029 82.5452 116.383C80.894 118.711 78.7982 120.686 76.2579 122.306C73.743 123.9 70.9359 125.001 67.8367 125.609L67.6843 126.368C71.0375 126.47 73.9589 127.305 76.4484 128.874C78.9379 130.418 80.767 132.57 81.9355 135.329C83.1041 138.062 83.3835 141.252 82.7739 144.897C82.0626 149.149 80.3224 152.933 77.5535 156.249C74.7845 159.565 71.1899 162.172 66.7697 164.071C62.3495 165.969 57.3197 166.918 51.6801 166.918H14.9468ZM39.0292 150.06H48.9366C52.4422 150.06 55.1985 149.39 57.2054 148.048C59.2376 146.707 60.4443 144.745 60.8253 142.163C61.1302 140.341 60.9778 138.797 60.3681 137.531C59.7584 136.265 58.7296 135.303 57.2816 134.645C55.8336 133.987 54.0172 133.658 51.8325 133.658H41.6204L39.0292 150.06ZM43.9067 120.597H52.5946C54.4237 120.597 56.1003 120.306 57.6245 119.724C59.1487 119.142 60.4062 118.294 61.3969 117.18C62.3876 116.066 63.01 114.725 63.2641 113.155C63.6451 110.725 63.0608 108.878 61.5112 107.612C59.987 106.346 57.9294 105.714 55.3382 105.714H46.3454L43.9067 120.597Z" fill="black"/>
<path d="M94.5483 106.169L97.4443 89.1595H165.271L162.375 106.169H138.903L128.843 166.918H107.961L118.021 106.169H94.5483Z" fill="black"/>
<path d="M30.2462 79.2453H243.352L247 60H33.8945L30.2462 79.2453Z" fill="black"/>
<path d="M9 196H222.106L225.754 176.755H12.6483L9 196Z" fill="black"/>
<path fill-rule="evenodd" clip-rule="evenodd" d="M160.289 166.918L173.245 89.1595H206.93C212.722 89.1595 217.612 90.21 221.6 92.3109C225.588 94.4118 228.459 97.4366 230.212 101.385C231.965 105.334 232.384 110.067 231.469 115.585C230.555 121.154 228.535 125.849 225.411 129.672C222.517 133.216 218.882 135.967 214.504 137.923L225.525 166.918H202.51L193.083 141.252H185.779L181.476 166.918H160.289ZM202.51 123.938C200.63 124.546 198.445 124.85 195.955 124.85H188.53L191.688 106.017H199.156C201.595 106.017 203.64 106.359 205.291 107.042C206.942 107.701 208.124 108.738 208.835 110.156C209.546 111.548 209.724 113.358 209.368 115.585C209.013 117.813 208.251 119.61 207.082 120.977C205.914 122.318 204.389 123.306 202.51 123.938Z" fill="black"/>
</svg>

<svg xmlns="http://www.w3.org/2000/svg" fill="none" viewBox="0 0 256 256"><path fill="#000" d="m14.947 166.918 12.956-77.759H61.74q8.916 0 14.594 2.392 5.715 2.393 8.078 6.759 2.4 4.367 1.41 10.289a19.05 19.05 0 0 1-3.277 7.784q-2.477 3.493-6.287 5.923-3.773 2.391-8.421 3.303l-.153.759q5.03.153 8.764 2.506 3.735 2.316 5.488 6.455 1.752 4.1.838 9.568-1.067 6.378-5.22 11.352-4.154 4.974-10.784 7.822t-15.09 2.847zm24.082-16.858h9.908q5.258 0 8.268-2.012 3.05-2.012 3.62-5.885.458-2.733-.457-4.632t-3.086-2.886-5.45-.987H41.62zm4.878-29.463h8.688q2.743 0 5.03-.873 2.286-.873 3.772-2.544 1.486-1.67 1.867-4.025.572-3.645-1.753-5.543-2.286-1.899-6.173-1.898h-8.993zm50.641-14.428 2.896-17.01h67.827l-2.896 17.01h-23.472l-10.06 60.749h-20.882l10.06-60.749zM30.246 79.245h213.106L247 60H33.895zM9 196h213.106l3.648-19.245H12.648z"/><path fill="#000" fill-rule="evenodd" d="m160.289 166.918 12.956-77.759h33.685q8.688 0 14.67 3.152 5.982 3.151 8.612 9.074t1.257 14.2q-1.371 8.353-6.058 14.087-4.34 5.316-10.907 8.251l11.021 28.995H202.51l-9.427-25.666h-7.304l-4.303 25.666zm42.221-42.98q-2.82.912-6.555.912h-7.425l3.158-18.833h7.468q3.659 0 6.135 1.025 2.477.988 3.544 3.114 1.067 2.088.533 5.429-.532 3.342-2.286 5.392-1.753 2.012-4.572 2.961" clip-rule="evenodd"/></svg>
